icons/svg/24x24/phone retro/filled.svg

<svg width="24" height="24" fill="none" xmlns="http://www.w3.org/2000/svg">
  <path fill-rule="evenodd" clip-rule="evenodd" d="M15 13c0-1.104-1.343-2-3-2s-3 .896-3 2 1.343 2 3 2 3-.896 3-2zm5 3v1.438c0 .946-.656 1.768-1.582 1.958-1.365.279-3.566.604-6.418.604-2.852 0-5.053-.325-6.418-.604A1.991 1.991 0 014 17.438V16c0-2 2-4 4-6V8h8v2c2 2 4 4 4 6zm2-9.31V9a1 1 0 01-1 1h-2a1 1 0 01-1-1V6.935C16.454 6.465 14.334 6 12 6s-4.454.465-6 .935V9a1 1 0 01-1 1H3a1 1 0 01-1-1V6.69c0-.421.259-.795.656-.939C4.145 5.215 7.965 4 12 4c4.035 0 7.855 1.215 9.344 1.751A.994.994 0 0122 6.69z" fill="#000"/>
</svg>

<svg xmlns="http://www.w3.org/2000/svg" width="24" height="24" viewBox="0 0 24 24">
  <path fill-rule="evenodd" d="M15,13 C15,11.896 13.657,11 12,11 C10.343,11 9,11.896 9,13 C9,14.104 10.343,15 12,15 C13.657,15 15,14.104 15,13 M20,16 L20,17.438 C20,18.384 19.344,19.206 18.418,19.396 C17.053,19.675 14.852,20 12,20 C9.148,20 6.947,19.675 5.582,19.396 C4.656,19.206 4,18.384 4,17.438 L4,16 C4,14 6,12 8,10 L8,8 L16,8 L16,10 C18,12 20,14 20,16 M22,6.69 L22,9 C22,9.553 21.553,10 21,10 L19,10 C18.447,10 18,9.553 18,9 L18,6.935 C16.454,6.465 14.334,6 12,6 C9.666,6 7.546,6.465 6,6.935 L6,9 C6,9.553 5.553,10 5,10 L3,10 C2.447,10 2,9.553 2,9 L2,6.69 C2,6.269 2.259,5.895 2.656,5.751 C4.145,5.215 7.965,4 12,4 C16.035,4 19.855,5.215 21.344,5.751 C21.741,5.895 22,6.269 22,6.69"/>
</svg>
